assets/img/templates/pieprogress/circle10.svg

<svg height="120" viewBox="0 0 105 120" width="105" xmlns="http://www.w3.org/2000/svg" xmlns:xlink="http://www.w3.org/1999/xlink"><linearGradient id="a" x1="32.489089%" x2="68.01964%" y1="-17.123226%" y2="98.253415%"><stop offset="0" stop-color="#e390f7"/><stop offset="1" stop-color="#c8d7ff"/></linearGradient><mask id="b" fill="#fff"><path d="m0 60.6422475 34.2767261-21.0755164v-39.5667311h46.7232739v81h-81z" fill="#fff" fill-rule="evenodd"/></mask><g fill="none" fill-rule="evenodd"><path d="m0 0h105v120h-105z" fill="#fff"/><g transform="translate(12 10)"><circle cx="41.594595" cy="39.405405" r="27.148649" stroke="#f6f6f6" stroke-width="7"/><circle cx="41.594595" cy="39.405405" mask="url(#b)" r="27.148649" stroke="url(#a)" stroke-width="7"/><g fill="#000" fill-rule="nonzero"><path d="m31.3755279 45.4142736c.9235642 0 1.7031778-.1909839 2.3388408-.5729518s1.1116976-.8893581 1.4281039-1.5221706c.3164062-.6328125.4746093-1.3254857.4746093-2.0780194 0-.8779561-.1496516-1.6304899-.4489548-2.2576014s-.7340055-1.1059966-1.3041068-1.4366554c-.5701014-.3306588-1.2570735-.4959882-2.0609164-.4959882-.3648649 0-.7126267.0484586-1.0432855.1453759-.3306588.0969172-.5986064.2052365-.8038429.3249577l.2993032-2.6082136h4.9427787v-2.1207771h-7.0550042l-.7268792 6.3366765 2.0523649.5045397c.1995354-.2052364.4204497-.3677153.6627428-.4874366.242293-.1197213.5629751-.1795819.962046-.1795819.6499155 0 1.1359269.1867082 1.4580342.5601245.3221073.3734164.4831609.8907834.4831609 1.552101 0 .6784206-.1339738 1.2242926-.4019214 1.6376161-.2679477.4133235-.6898227.6199852-1.265625.6199852-.4788852 0-.8679794-.1411001-1.1672826-.4233002-.2993032-.2822002-.4717588-.6712944-.5173669-1.1672825h-2.5654561c.011402.7411317.2180637 1.389622.6199852 1.9454708.4019214.5558488.9249894.9819996 1.569204 1.2784523.6442145.2964527 1.3340371.444679 2.0694679.444679zm9.7572846 0c.855152 0 1.6205131-.1453758 2.2960832-.4361275s1.2071896-.7126267 1.5948585-1.265625.5815034-1.2086149.5815034-1.9668496c0-.6955237-.1767314-1.2912796-.5301943-1.7872678-.3534628-.4959882-.8694045-.866554-1.5478251-1.1116976.5929054-.2736487 1.0561127-.6499156 1.389622-1.1288007s.500264-.9948269.500264-1.5478252c0-.7639358-.1781567-1.4124261-.5344701-1.9454708-.3563133-.5330448-.8565772-.9349662-1.5007918-1.2057644-.6442145-.2707981-1.3938978-.4061972-2.2490498-.4061972-.7525338 0-1.4423564.1396748-2.0694679.4190245s-1.1245249.6769954-1.4922403 1.1929371-.5515731 1.1102724-.5515731 1.782992h2.5825592c0-.2622467.0726879-.4931377.2180637-.6926732.1453759-.1995355.3406356-.3534628.5857792-.4617821.2451436-.1083192.5102407-.1624789.7952914-.1624789.5358952 0 .9420924.1411001 1.2185916.4233003s.4147487.6484903.4147487 1.0988703c0 .5187923-.1510768.9264147-.4532305 1.2228674-.3021538.2964527-.7439823.4446791-1.3254857.4446791h-1.3340371v2.0096073h1.3340371c1.3169341 0 1.9754012.6043074 1.9754012 1.8129223 0 .3192567-.0726879.6014569-.2180638.8466005-.1453758.2451435-.3563133.4375527-.6328125.5772276-.2764991.1396748-.6028821.2095122-.979149.2095122-.3306588 0-.629962-.0655616-.8979097-.1966849-.2679476-.1311234-.4788851-.3135558-.6328125-.5472973-.1539273-.2337416-.230891-.4931377-.230891-.7781884h-2.5825591c0 .7867399.2023859 1.450908.6071579 1.9925042.404772.5415963.933541.944943 1.586307 1.2100402.6527661.2650971 1.3468645.3976456 2.0822952.3976456zm8.8251689-7.0122466c.5758024 0 1.0675148-.1140202 1.4751373-.3420608.4076224-.2280405.7140519-.5358953.9192884-.9235642s.3078547-.8180954.3078547-1.2912795v-.6584671c0-.4788851-.1040435-.9135874-.3121305-1.3041068-.208087-.3905195-.5159417-.6997994-.9235642-.92784-.4076224-.2280405-.9021853-.3420608-1.4836887-.3420608-.5701014 0-1.0603885.1140203-1.4708615.3420608-.410473.2280406-.7211782.5373205-.9321157.92784-.2109375.3905194-.3164063.8252217-.3164063 1.3041068v.6584671c0 .4731841.1054688.9036106.3164063 1.2912795s.523068.6955237.9363915.9235642c.4133234.2280406.9078864.3420608 1.4836887.3420608zm.5045397 5.9091005 6.0801309-9.73163-1.2485219-.6584671-6.0801309 9.7316301zm-.5045397-7.3885135c-.3306588 0-.5857791-.1040435-.765361-.3121305-.179582-.208087-.2693729-.4632073-.2693729-.765361v-.6584671c0-.3078547.0883657-.5672508.2650971-.7781883s.427576-.3164063.7525338-.3164063c.3306588 0 .5843539.1054688.7610853.3164063s.2650971.4703336.2650971.7781883v.6584671c0 .3021537-.0869404.557274-.2608214.765361-.1738809.208087-.4233002.3121305-.748258.3121305zm5.9433066 8.4916596c.5758024 0 1.06894-.1140202 1.479413-.3420608.410473-.2280405.7183277-.5358952.9235642-.9235642.2052365-.3876689.3078547-.8209459.3078547-1.299831v-.6584671c0-.4788851-.1040435-.9121622-.3121305-1.2998311s-.5173669-.6955236-.9278399-.9235642c-.410473-.2280405-.9064612-.3420608-1.4879645-.3420608-.5701014 0-1.0603885.1140203-1.4708615.3420608-.410473.2280406-.7211782.5373206-.9321157.92784s-.3164063.8223712-.3164063 1.2955553v.6584671c0 .4788851.1054688.9121621.3164063 1.299831.2109375.387669.523068.6955237.9363914.9235642.4133235.2280406.9078864.3420608 1.4836888.3420608zm0-1.479413c-.3021537 0-.5501478-.106894-.7439823-.320682-.1938344-.213788-.2907516-.4689083-.2907516-.765361v-.6584671c0-.3078547.0883657-.5658256.2650971-.7739126s.427576-.3121305.7525338-.3121305c.3306588 0 .5843539.1040435.7610853.3121305s.2650971.4660579.2650971.7739126v.6584671c0 .3306588-.0741132.5943306-.2223395.7910156-.1482264.196685-.410473.2950274-.7867399.2950274z"/><path d="m30.516 92v-1.056h-1.52v-8.96h2.08v1.824h1.856v-2.976h-10.464v2.976h1.856v-1.824h2.08v8.96h-1.52v1.056zm5.616-9.488c.448 0 .7973333-.1226667 1.048-.368s.376-.576.376-.992v-.08c0-.416-.1253333-.7466667-.376-.992s-.6-.368-1.048-.368-.7973333.1226667-1.048.368-.376.576-.376.992v.08c0 .416.1253333.7466667.376.992s.6.368 1.048.368zm2.192 9.488v-1.056h-.96v-7.52l-3.392.688v.912l.96.208v5.712h-.96v1.056zm3.728.16c.5546667 0 1.0506667-.032 1.488-.096s.7413333-.1333333.912-.208v-.944h-1.84v-6.176h1.84v-1.12h-1.84v-2.32h-1.2l-.672 1.392c-.1493333.3093333-.3066667.5413333-.472.696s-.424.232-.776.232h-.432v1.12h1.12v5.744c0 .5546667.152.9733333.456 1.256s.776.424 1.416.424zm7.44-.16v-1.056h-.96v-11.104l-3.392.688v.912l.96.208v9.296h-.96v1.056zm5.136.192c.5226667 0 .9866667-.0746667 1.392-.224s.752-.3386667 1.04-.568.5226667-.4826667.704-.76.32-.5493333.416-.816l-.88-.528c-.1493333.3733333-.4.6906667-.752.952s-.816.392-1.392.392c-.6186667 0-1.1146667-.1813333-1.488-.544s-.56-.9013333-.56-1.616v-.64h5.264v-.544c0-.5866667-.0906667-1.12-.272-1.6s-.44-.888-.776-1.224-.744-.5946667-1.224-.776-1.0186667-.272-1.616-.272-1.1386667.1013333-1.624.304-.9013333.4906667-1.248.864-.6133333.832-.8 1.376-.28 1.152-.28 1.824c0 .64.0906667 1.2293333.272 1.768s.4453333 1.0026667.792 1.392.7733333.6933333 1.28.912 1.0906667.328 1.752.328zm1.232-5.36h-2.752v-.224c0-.768.1226667-1.3066667.368-1.616s.5813333-.464 1.008-.464.7626667.1546667 1.008.464.368.848.368 1.616z"/></g></g></g></svg>

<?xml version="1.0" encoding="UTF-8"?>
<svg width="105px" height="120px" viewBox="0 0 105 120" version="1.1" xmlns="http://www.w3.org/2000/svg" xmlns:xlink="http://www.w3.org/1999/xlink">
    <!-- Generator: Sketch 61.1 (89650) - https://sketch.com -->
    <title>circle9</title>
    <desc>Created with Sketch.</desc>
    <defs>
        <polygon id="path-1" points="0 60.6422475 34.2767261 39.5667311 34.2767261 0 81 0 81 81 0 81"></polygon>
        <linearGradient x1="32.4890891%" y1="-17.1232256%" x2="68.0196403%" y2="98.2534147%" id="linearGradient-3">
            <stop stop-color="#E390F7" offset="0%"></stop>
            <stop stop-color="#C8D7FF" offset="100%"></stop>
        </linearGradient>
    </defs>
    <g id="circle9" stroke="none" stroke-width="1" fill="none" fill-rule="evenodd">
        <rect fill="#FFFFFF" x="0" y="0" width="105" height="120"></rect>
        <g id="Group" transform="translate(12.000000, 10.000000)">
            <g id="Group-4-Copy">
                <g id="Circle-Graph">
                    <circle id="Oval-2" stroke="#F6F6F6" stroke-width="7" cx="41.5945946" cy="39.4054054" r="27.1486486"></circle>
                    <mask id="mask-2" fill="white">
                        <use xlink:href="#path-1"></use>
                    </mask>
                    <g id="Rectangle-3"></g>
                    <circle id="Oval-2" stroke="url(#linearGradient-3)" stroke-width="7" mask="url(#mask-2)" cx="41.5945946" cy="39.4054054" r="27.1486486"></circle>
                </g>
                <path d="M31.3755279,45.4142736 C32.2990921,45.4142736 33.0787057,45.2232897 33.7143687,44.8413218 C34.3500317,44.4593539 34.8260663,43.9519637 35.1424726,43.3191512 C35.4588788,42.6863387 35.6170819,41.9936655 35.6170819,41.2411318 C35.6170819,40.3631757 35.4674303,39.6106419 35.1681271,38.9835304 C34.8688239,38.3564189 34.4341216,37.8775338 33.8640203,37.546875 C33.2939189,37.2162162 32.6069468,37.0508868 31.8031039,37.0508868 C31.438239,37.0508868 31.0904772,37.0993454 30.7598184,37.1962627 C30.4291596,37.2931799 30.161212,37.4014992 29.9559755,37.5212204 L29.9559755,37.5212204 L30.2552787,34.9130068 L35.1980574,34.9130068 L35.1980574,32.7922297 L28.1430532,32.7922297 L27.416174,39.1289062 L29.4685389,39.6334459 C29.6680743,39.4282095 29.8889886,39.2657306 30.1312817,39.1460093 C30.3735747,39.026288 30.6942568,38.9664274 31.0933277,38.9664274 C31.7432432,38.9664274 32.2292546,39.1531356 32.5513619,39.5265519 C32.8734692,39.8999683 33.0345228,40.4173353 33.0345228,41.0786529 C33.0345228,41.7570735 32.900549,42.3029455 32.6326014,42.716269 C32.3646537,43.1295925 31.9427787,43.3362542 31.3669764,43.3362542 C30.8880912,43.3362542 30.498997,43.1951541 30.1996938,42.912954 C29.9003906,42.6307538 29.727935,42.2416596 29.6823269,41.7456715 L29.6823269,41.7456715 L27.1168708,41.7456715 C27.1282728,42.4868032 27.3349345,43.1352935 27.736856,43.6911423 C28.1387774,44.2469911 28.6618454,44.6731419 29.30606,44.9695946 C29.9502745,45.2660473 30.6400971,45.4142736 31.3755279,45.4142736 Z M41.1328125,45.4142736 C41.9879645,45.4142736 42.7533256,45.2688978 43.4288957,44.9781461 C44.1044658,44.6873944 44.6360853,44.2655194 45.0237542,43.7125211 C45.4114231,43.1595228 45.6052576,42.5039062 45.6052576,41.7456715 C45.6052576,41.0501478 45.4285262,40.4543919 45.0750633,39.9584037 C44.7216005,39.4624155 44.2056588,39.0918497 43.5272382,38.8467061 C44.1201436,38.5730574 44.5833509,38.1967905 44.9168602,37.7179054 C45.2503695,37.2390203 45.4171242,36.7230785 45.4171242,36.1700802 C45.4171242,35.4061444 45.2389675,34.7576541 44.8826541,34.2246094 C44.5263408,33.6915646 44.0260769,33.2896432 43.3818623,33.018845 C42.7376478,32.7480469 41.9879645,32.6126478 41.1328125,32.6126478 C40.3802787,32.6126478 39.6904561,32.7523226 39.0633446,33.0316723 C38.4362331,33.311022 37.9388197,33.7086677 37.5711043,34.2246094 C37.2033889,34.7405511 37.0195312,35.3348818 37.0195312,36.0076014 L37.0195312,36.0076014 L39.6020904,36.0076014 C39.6020904,35.7453547 39.6747783,35.5144637 39.8201541,35.3149282 C39.96553,35.1153927 40.1607897,34.9614654 40.4059333,34.8531461 C40.6510769,34.7448269 40.916174,34.6906672 41.2012247,34.6906672 C41.7371199,34.6906672 42.1433171,34.8317673 42.4198163,35.1139675 C42.6963155,35.3961677 42.834565,35.7624578 42.834565,36.2128378 C42.834565,36.7316301 42.6834882,37.1392525 42.3813345,37.4357052 C42.0791807,37.7321579 41.6373522,37.8803843 41.0558488,37.8803843 L41.0558488,37.8803843 L39.7218117,37.8803843 L39.7218117,39.8899916 L41.0558488,39.8899916 C42.3727829,39.8899916 43.03125,40.494299 43.03125,41.7029139 C43.03125,42.0221706 42.9585621,42.3043708 42.8131862,42.5495144 C42.6678104,42.7946579 42.4568729,42.9870671 42.1803737,43.126742 C41.9038746,43.2664168 41.5774916,43.3362542 41.2012247,43.3362542 C40.8705659,43.3362542 40.5712627,43.2706926 40.303315,43.1395693 C40.0353674,43.0084459 39.8244299,42.8260135 39.6705025,42.592272 C39.5165752,42.3585304 39.4396115,42.0991343 39.4396115,41.8140836 L39.4396115,41.8140836 L36.8570524,41.8140836 C36.8570524,42.6008235 37.0594383,43.2649916 37.4642103,43.8065878 C37.8689823,44.3481841 38.3977513,44.7515308 39.0505173,45.016628 C39.7032834,45.2817251 40.3973818,45.4142736 41.1328125,45.4142736 Z M49.9579814,38.402027 C50.5337838,38.402027 51.0254962,38.2880068 51.4331187,38.0599662 C51.8407411,37.8319257 52.1471706,37.5240709 52.3524071,37.136402 C52.5576436,36.7487331 52.6602618,36.3183066 52.6602618,35.8451225 L52.6602618,35.8451225 L52.6602618,35.1866554 C52.6602618,34.7077703 52.5562183,34.273068 52.3481313,33.8825486 C52.1400443,33.4920291 51.8321896,33.1827492 51.4245671,32.9547086 C51.0169447,32.7266681 50.5223818,32.6126478 49.9408784,32.6126478 C49.370777,32.6126478 48.8804899,32.7266681 48.4700169,32.9547086 C48.0595439,33.1827492 47.7488387,33.4920291 47.5379012,33.8825486 C47.3269637,34.273068 47.2214949,34.7077703 47.2214949,35.1866554 L47.2214949,35.1866554 L47.2214949,35.8451225 C47.2214949,36.3183066 47.3269637,36.7487331 47.5379012,37.136402 C47.7488387,37.5240709 48.0609692,37.8319257 48.4742927,38.0599662 C48.8876161,38.2880068 49.3821791,38.402027 49.9579814,38.402027 Z M50.4625211,44.3111275 L56.542652,34.5794975 L55.2941301,33.9210304 L49.2139992,43.6526605 L50.4625211,44.3111275 Z M49.9579814,36.922614 C49.6273226,36.922614 49.3722023,36.8185705 49.1926204,36.6104835 C49.0130384,36.4023965 48.9232475,36.1472762 48.9232475,35.8451225 L48.9232475,35.8451225 L48.9232475,35.1866554 C48.9232475,34.8788007 49.0116132,34.6194046 49.1883446,34.4084671 C49.365076,34.1975296 49.6159206,34.0920608 49.9408784,34.0920608 C50.2715372,34.0920608 50.5252323,34.1975296 50.7019637,34.4084671 C50.8786951,34.6194046 50.9670608,34.8788007 50.9670608,35.1866554 L50.9670608,35.1866554 L50.9670608,35.8451225 C50.9670608,36.1472762 50.8801204,36.4023965 50.7062394,36.6104835 C50.5323585,36.8185705 50.2829392,36.922614 49.9579814,36.922614 Z M55.901288,45.4142736 C56.4770904,45.4142736 56.970228,45.3002534 57.380701,45.0722128 C57.791174,44.8441723 58.0990287,44.5363176 58.3042652,44.1486486 C58.5095017,43.7609797 58.6121199,43.3277027 58.6121199,42.8488176 L58.6121199,42.8488176 L58.6121199,42.1903505 C58.6121199,41.7114654 58.5080764,41.2781883 58.2999894,40.8905194 C58.0919024,40.5028505 57.7826225,40.1949958 57.3721495,39.9669552 C56.9616765,39.7389147 56.4656883,39.6248944 55.884185,39.6248944 C55.3140836,39.6248944 54.8237965,39.7389147 54.4133235,39.9669552 C54.0028505,40.1949958 53.6921453,40.5042758 53.4812078,40.8947952 C53.2702703,41.2853146 53.1648015,41.7171664 53.1648015,42.1903505 L53.1648015,42.1903505 L53.1648015,42.8488176 C53.1648015,43.3277027 53.2702703,43.7609797 53.4812078,44.1486486 C53.6921453,44.5363176 54.0042758,44.8441723 54.4175992,45.0722128 C54.8309227,45.3002534 55.3254856,45.4142736 55.901288,45.4142736 Z M55.901288,43.9348606 C55.5991343,43.9348606 55.3511402,43.8279666 55.1573057,43.6141786 C54.9634713,43.4003906 54.8665541,43.1452703 54.8665541,42.8488176 L54.8665541,42.8488176 L54.8665541,42.1903505 C54.8665541,41.8824958 54.9549198,41.6245249 55.1316512,41.4164379 C55.3083826,41.2083509 55.5592272,41.1043074 55.884185,41.1043074 C56.2148438,41.1043074 56.4685389,41.2083509 56.6452703,41.4164379 C56.8220017,41.6245249 56.9103674,41.8824958 56.9103674,42.1903505 L56.9103674,42.1903505 L56.9103674,42.8488176 C56.9103674,43.1794764 56.8362542,43.4431482 56.6880279,43.6398332 C56.5398015,43.8365182 56.2775549,43.9348606 55.901288,43.9348606 Z" id="53%" fill="#000000" fill-rule="nonzero"></path>
            </g>
            <path d="M30.516,92 L30.516,90.944 L28.996,90.944 L28.996,81.984 L31.076,81.984 L31.076,83.808 L32.932,83.808 L32.932,80.832 L22.468,80.832 L22.468,83.808 L24.324,83.808 L24.324,81.984 L26.404,81.984 L26.404,90.944 L24.884,90.944 L24.884,92 L30.516,92 Z M36.132,82.512 C36.58,82.512 36.9293333,82.3893333 37.18,82.144 C37.4306667,81.8986667 37.556,81.568 37.556,81.152 L37.556,81.152 L37.556,81.072 C37.556,80.656 37.4306667,80.3253333 37.18,80.08 C36.9293333,79.8346667 36.58,79.712 36.132,79.712 C35.684,79.712 35.3346667,79.8346667 35.084,80.08 C34.8333333,80.3253333 34.708,80.656 34.708,81.072 L34.708,81.072 L34.708,81.152 C34.708,81.568 34.8333333,81.8986667 35.084,82.144 C35.3346667,82.3893333 35.684,82.512 36.132,82.512 Z M38.324,92 L38.324,90.944 L37.364,90.944 L37.364,83.424 L33.972,84.112 L33.972,85.024 L34.932,85.232 L34.932,90.944 L33.972,90.944 L33.972,92 L38.324,92 Z M42.052,92.16 C42.6066667,92.16 43.1026667,92.128 43.54,92.064 C43.9773333,92 44.2813333,91.9306667 44.452,91.856 L44.452,91.856 L44.452,90.912 L42.612,90.912 L42.612,84.736 L44.452,84.736 L44.452,83.616 L42.612,83.616 L42.612,81.296 L41.412,81.296 L40.74,82.688 C40.5906667,82.9973333 40.4333333,83.2293333 40.268,83.384 C40.1026667,83.5386667 39.844,83.616 39.492,83.616 L39.492,83.616 L39.06,83.616 L39.06,84.736 L40.18,84.736 L40.18,90.48 C40.18,91.0346667 40.332,91.4533333 40.636,91.736 C40.94,92.0186667 41.412,92.16 42.052,92.16 Z M49.492,92 L49.492,90.944 L48.532,90.944 L48.532,79.84 L45.14,80.528 L45.14,81.44 L46.1,81.648 L46.1,90.944 L45.14,90.944 L45.14,92 L49.492,92 Z M54.628,92.192 C55.1506667,92.192 55.6146667,92.1173333 56.02,91.968 C56.4253333,91.8186667 56.772,91.6293333 57.06,91.4 C57.348,91.1706667 57.5826667,90.9173333 57.764,90.64 C57.9453333,90.3626667 58.084,90.0906667 58.18,89.824 L58.18,89.824 L57.3,89.296 C57.1506667,89.6693333 56.9,89.9866667 56.548,90.248 C56.196,90.5093333 55.732,90.64 55.156,90.64 C54.5373333,90.64 54.0413333,90.4586667 53.668,90.096 C53.2946667,89.7333333 53.108,89.1946667 53.108,88.48 L53.108,88.48 L53.108,87.84 L58.372,87.84 L58.372,87.296 C58.372,86.7093333 58.2813333,86.176 58.1,85.696 C57.9186667,85.216 57.66,84.808 57.324,84.472 C56.988,84.136 56.58,83.8773333 56.1,83.696 C55.62,83.5146667 55.0813333,83.424 54.484,83.424 C53.8866667,83.424 53.3453333,83.5253333 52.86,83.728 C52.3746667,83.9306667 51.9586667,84.2186667 51.612,84.592 C51.2653333,84.9653333 50.9986667,85.424 50.812,85.968 C50.6253333,86.512 50.532,87.12 50.532,87.792 C50.532,88.432 50.6226667,89.0213333 50.804,89.56 C50.9853333,90.0986667 51.2493333,90.5626667 51.596,90.952 C51.9426667,91.3413333 52.3693333,91.6453333 52.876,91.864 C53.3826667,92.0826667 53.9666667,92.192 54.628,92.192 Z M55.86,86.832 L53.108,86.832 L53.108,86.608 C53.108,85.84 53.2306667,85.3013333 53.476,84.992 C53.7213333,84.6826667 54.0573333,84.528 54.484,84.528 C54.9106667,84.528 55.2466667,84.6826667 55.492,84.992 C55.7373333,85.3013333 55.86,85.84 55.86,86.608 L55.86,86.608 L55.86,86.832 Z" id="Title" fill="#000000" fill-rule="nonzero"></path>
        </g>
    </g>
</svg>
